X: 14390
T: Galway Bay
R: hornpipe
M: 4/4
K: Edorian
EF|:~G3 A BABd|e2 ed efge|dBge dBAB|GFED EDB,D|
E2 EF GFGE|D2 DE FEDB,|EFGA BAGF|(3GAG E2 E2 z2:|
|:edBd efge|edBd BGEF|~G3 A BABc|dA (3BAG FEDB,|
G2 BG F2 A2|G2 BG F2 A2|Bdef gfed|B2 e2 e2 z2:|

